X:240
T:Edwards's Polka
Z:Jack Campin, http://www.campin.me.uk/
F:Jack Campin's Nine-Note Tunebook
% last edit 03-02-2013
M:2/4
L:1/8
Q:1/4=140
K:DDor
C/D/E/F/ Gc|GE Ec|GE       Ec|G2 E2 |
C/D/E/F/ Gc|GE Ec|dD       DE|F2 ED:|
C/D/E/F/ GE|AF GE|C/D/E/F/ GE|G2 ED |
C/D/E/F/ GE|AF GE|AD       DE|F2 ED:|

